public/instagram.svg

<svg width="10" height="18" viewBox="0 0 10 18" fill="none" xmlns="http://www.w3.org/2000/svg">
<path d="M9.60409 6.50001H6.66659V4.83334C6.66659 3.97334 6.73659 3.43168 7.96909 3.43168H9.52575V0.781678C8.76825 0.703345 8.00659 0.665011 7.24409 0.666678C4.98325 0.666678 3.33325 2.04751 3.33325 4.58251V6.50001H0.833252V9.83334L3.33325 9.83251V17.3333H6.66659V9.83084L9.22159 9.83001L9.60409 6.50001Z" fill="white"/>
</svg>

<svg width="10" height="18" fill="none" xmlns="http://www.w3.org/2000/svg"><path d="M9.604 6.5H6.667V4.833c0-.86.07-1.401 1.302-1.401h1.557V.782A21.72 21.72 0 0 0 7.244.667c-2.26 0-3.91 1.38-3.91 3.916V6.5h-2.5v3.333h2.5v7.5h3.333V9.831l2.555-.001.382-3.33z" fill="#fff"/></svg>
